usr/share/icons/biglinux-icons-material/scalable/apps/gnome-aisleriot.svg

<svg width="24" height="24" viewBox="0 0 24 24" fill="none" xmlns="http://www.w3.org/2000/svg">
<path fill-rule="evenodd" clip-rule="evenodd" d="M9.59604 1.11359C9.71588 1.11486 9.83043 1.0996 9.93969 1.06779C11.3755 0.973736 12.8111 0.977551 14.2467 1.07924C15.5484 1.18066 16.8085 1.46308 18.0269 1.9265C20.0525 2.76044 21.4386 4.2069 22.185 6.26586C22.6119 7.50549 22.8639 8.78021 22.9411 10.09C23.0478 11.7347 23.0096 13.3758 22.8265 15.0133C22.6895 16.1642 22.3917 17.271 21.933 18.3336C21.0824 20.1761 19.704 21.447 17.7978 22.1463C16.2531 22.6682 14.6647 22.943 13.0325 22.9706C11.1966 23.0661 9.37913 22.9287 7.57997 22.5585C4.26839 21.8208 2.22559 19.8018 1.45158 16.5017C1.12311 15.0161 0.974199 13.5124 1.00483 11.9906C0.968176 10.3724 1.14 8.77709 1.52031 7.20471C2.33171 4.11908 4.2905 2.20701 7.39669 1.46852C8.12049 1.29157 8.8536 1.17326 9.59604 1.11359Z" fill="url(#paint0_radial_8_160)"/>
<path d="M19.4196 4.64661V16.2785C19.4196 16.4497 19.3518 16.6139 19.2312 16.7349C19.1106 16.856 18.947 16.924 18.7765 16.924H9.60072C9.43016 16.924 9.26658 16.856 9.14597 16.7349C9.02536 16.6139 8.9576 16.4497 8.9576 16.2785V4.64661C8.95745 4.56165 8.97401 4.4775 9.00634 4.39898C9.03866 4.32046 9.08611 4.24912 9.14597 4.18904C9.20583 4.12897 9.27691 4.08135 9.35515 4.04891C9.43338 4.01647 9.51723 3.99985 9.60188 4H18.7765C18.861 4 18.9447 4.01673 19.0228 4.04924C19.101 4.08175 19.1719 4.1294 19.2316 4.18946C19.2914 4.24952 19.3387 4.32081 19.371 4.39925C19.4032 4.47769 19.4197 4.56175 19.4196 4.64661Z" fill="#E6E6E6"/>
<path d="M14.0351 7.2121C13.623 7.21271 13.228 7.37676 12.9367 7.66826C12.6454 7.95975 12.4817 8.35489 12.4814 8.76697C12.4821 9.04169 12.5555 9.31133 12.6942 9.54848C12.2995 9.57361 11.9291 9.7481 11.6585 10.0365C11.3878 10.3249 11.2371 10.7055 11.237 11.101C11.2373 11.5131 11.4011 11.9082 11.6923 12.1997C11.9836 12.4912 12.3786 12.6553 12.7907 12.6559C13.0324 12.6556 13.2707 12.599 13.4866 12.4906C13.7026 12.3822 13.8904 12.225 14.0351 12.0314C14.1798 12.225 14.3675 12.3822 14.5835 12.4906C14.7995 12.599 15.0378 12.6556 15.2794 12.6559C15.6919 12.6559 16.0875 12.4921 16.3793 12.2006C16.6711 11.909 16.8352 11.5135 16.8355 11.101C16.8351 10.7057 16.6843 10.3254 16.4136 10.0372C16.143 9.74909 15.7728 9.57476 15.3783 9.54964C15.5172 9.31216 15.5906 9.04209 15.5911 8.76697C15.5908 8.35449 15.4267 7.959 15.135 7.66744C14.8432 7.37588 14.4476 7.2121 14.0351 7.2121Z" fill="#3F3F3F"/>
<path fill-rule="evenodd" clip-rule="evenodd" d="M14.5025 12.3941C14.437 12.1831 14.256 12.0012 14.0351 12.0012V12.0012C13.8141 12.0012 13.6332 12.1831 13.5678 12.3941C13.4697 12.7107 13.2286 13.1149 12.6359 13.1893C12.5263 13.2031 12.436 13.2909 12.436 13.4014V13.4014C12.436 13.5118 12.5256 13.6014 12.636 13.6014H15.4353C15.5458 13.6014 15.6353 13.5118 15.6353 13.4014V13.4014C15.6353 13.2909 15.5451 13.2031 15.4354 13.1893C14.842 13.115 14.6006 12.7107 14.5025 12.3941Z" fill="#3F3F3F"/>
<path opacity="0.875" d="M15.112 7.7238V19.3546C15.112 19.4393 15.0954 19.5232 15.063 19.6016C15.0307 19.6799 14.9833 19.751 14.9236 19.811C14.8639 19.8709 14.793 19.9184 14.715 19.9509C14.637 19.9833 14.5533 20 14.4689 20H5.29312C5.12255 20 4.95897 19.932 4.83836 19.811C4.71776 19.6899 4.65 19.5257 4.65 19.3546V7.7238C4.64985 7.63884 4.66641 7.55469 4.69873 7.47617C4.73106 7.39765 4.77851 7.32631 4.83837 7.26623C4.89822 7.20616 4.96931 7.15854 5.04754 7.1261C5.12578 7.09366 5.20963 7.07704 5.29428 7.07719H14.4689C14.5534 7.07719 14.6371 7.09393 14.7152 7.12643C14.7933 7.15894 14.8643 7.20659 14.924 7.26665C14.9838 7.32671 15.0311 7.398 15.0634 7.47644C15.0956 7.55488 15.1121 7.63894 15.112 7.7238Z" fill="#E6E6E6" fill-opacity="0.875"/>
<path d="M11.2603 11.201C10.7625 11.201 10.3241 11.436 10.0357 11.7965C9.88957 11.6114 9.70355 11.4617 9.4915 11.3586C9.27945 11.2555 9.04685 11.2017 8.81107 11.201C7.94001 11.201 7.23526 11.9058 7.23526 12.7757C7.23526 12.7931 7.23991 12.8106 7.24107 12.8269H7.23526C7.23526 14.4422 10.0357 16.8007 10.0357 16.8007C10.0357 16.8007 12.8361 14.4422 12.8361 12.8269H12.8303C12.8303 12.8094 12.8361 12.7931 12.8361 12.7757C12.8361 11.9058 12.1302 11.201 11.2603 11.201Z" fill="#F34235"/>
<defs>
<radialGradient id="paint0_radial_8_160" cx="0" cy="0" r="1" gradientUnits="userSpaceOnUse" gradientTransform="translate(12 1) rotate(90) scale(22)">
<stop stop-color="#CCCCCC"/>
<stop offset="1" stop-color="#777777"/>
</radialGradient>
</defs>
</svg>

<svg xmlns="http://www.w3.org/2000/svg" width="24" height="24" fill="none"><path fill="url(#a)" fill-rule="evenodd" d="M9.596 1.114c.12 0 .234-.014.344-.046a31.627 31.627 0 0 1 4.307.011c1.301.102 2.561.384 3.78.848 2.025.833 3.412 2.28 4.158 4.339.427 1.24.679 2.514.756 3.824a27.94 27.94 0 0 1-.114 4.923 11.876 11.876 0 0 1-.894 3.32c-.85 1.843-2.229 3.114-4.135 3.813a15.624 15.624 0 0 1-4.765.825 21.423 21.423 0 0 1-5.453-.413c-3.312-.737-5.354-2.756-6.128-6.056a19.047 19.047 0 0 1-.447-4.511 18.491 18.491 0 0 1 .515-4.786c.812-3.086 2.77-4.998 5.877-5.736a13.954 13.954 0 0 1 2.199-.355Z" clip-rule="evenodd"/><path fill="#E6E6E6" d="M19.42 4.647v11.632a.647.647 0 0 1-.644.645H9.601a.642.642 0 0 1-.643-.645V4.647A.647.647 0 0 1 9.602 4h9.174a.64.64 0 0 1 .644.647Z"/><path fill="#3F3F3F" d="M14.035 7.212a1.556 1.556 0 0 0-1.554 1.555c.001.275.075.544.213.781a1.556 1.556 0 0 0 .097 3.108 1.555 1.555 0 0 0 1.244-.625 1.556 1.556 0 0 0 2.8-.93 1.556 1.556 0 0 0-1.457-1.551 1.556 1.556 0 0 0-1.343-2.338Z"/><path fill="#3F3F3F" fill-rule="evenodd" d="M14.502 12.394c-.065-.21-.246-.393-.467-.393-.22 0-.402.182-.467.393-.098.317-.34.72-.932.795-.11.014-.2.102-.2.212s.09.2.2.2h2.8a.2.2 0 0 0 .2-.2c0-.11-.09-.198-.2-.212-.594-.074-.835-.478-.934-.795Z" clip-rule="evenodd"/><path fill="#E6E6E6" fill-opacity=".875" d="M15.112 7.724v11.63a.647.647 0 0 1-.643.646H5.293a.642.642 0 0 1-.643-.645V7.724a.648.648 0 0 1 .644-.647h9.175a.641.641 0 0 1 .643.647Z" opacity=".875"/><path fill="#F34235" d="M11.26 11.201c-.498 0-.936.235-1.224.595a1.566 1.566 0 0 0-1.225-.595c-.871 0-1.576.705-1.576 1.575 0 .017.005.035.006.05h-.006c0 1.616 2.8 3.975 2.8 3.975s2.801-2.359 2.801-3.974h-.006c0-.018.006-.034.006-.051 0-.87-.706-1.575-1.576-1.575Z"/><defs><radialGradient id="a" cx="0" cy="0" r="1" gradientTransform="matrix(0 22 -22 0 12 1)" gradientUnits="userSpaceOnUse"><stop stop-color="#CCC"/><stop offset="1" stop-color="#777"/></radialGradient></defs></svg>
